public/icons/fog.svg

<?xml version="1.0" ?>
<svg xmlns="http://www.w3.org/2000/svg" width="100" height="100" viewBox="0 0 100 100">
  <path d="M69.998,65.641H30.003c-1.104,0 -2,-0.896 -2,-2c0,-1.105 0.896,-2 2,-2h39.995c1.104,0 2,0.895 2,2C71.998,64.744 71.103,65.641 69.998,65.641zM69.998,57.641H30.003c-1.104,0 -2,-0.895 -2,-2c0,-1.104 0.896,-2 2,-2h39.995c1.104,0 2,0.896 2,2C71.998,56.746 71.103,57.641 69.998,57.641zM59.999,45.643c-1.601,0 -3.083,0.48 -4.333,1.291c-1.232,-5.317 -5.974,-9.291 -11.665,-9.291c-6.626,0 -11.998,5.373 -11.998,12h-4c0,-8.835 7.163,-15.999 15.998,-15.999c6.004,0 11.229,3.312 13.965,8.204c0.664,-0.113 1.337,-0.205 2.033,-0.205c5.222,0 9.652,3.342 11.301,8h-4.381C65.535,47.253 62.958,45.643 59.999,45.643zM30.003,69.639h39.995c1.104,0 2,0.896 2,2c0,1.105 -0.896,2 -2,2H30.003c-1.104,0 -2,-0.895 -2,-2C28.003,70.535 28.898,69.639 30.003,69.639z" fill="#FF000000"/>
</svg>

<svg
    xmlns="http://www.w3.org/2000/svg"
    viewBox="0 0 100 100"
    id="vector">
    <path
        id="path"
        d="M 69.998 65.641 L 30.003 65.641 C 28.899 65.641 28.003 64.745 28.003 63.641 C 28.003 62.536 28.899 61.641 30.003 61.641 L 69.998 61.641 C 71.102 61.641 71.998 62.536 71.998 63.641 C 71.998 64.744 71.103 65.641 69.998 65.641 Z M 69.998 57.641 L 30.003 57.641 C 28.899 57.641 28.003 56.746 28.003 55.641 C 28.003 54.537 28.899 53.641 30.003 53.641 L 69.998 53.641 C 71.102 53.641 71.998 54.537 71.998 55.641 C 71.998 56.746 71.103 57.641 69.998 57.641 Z M 59.999 45.643 C 58.398 45.643 56.916 46.123 55.666 46.934 C 54.434 41.617 49.692 37.643 44.001 37.643 C 37.375 37.643 32.003 43.016 32.003 49.643 L 28.003 49.643 C 28.003 40.808 35.166 33.644 44.001 33.644 C 50.005 33.644 55.23 36.956 57.966 41.848 C 58.63 41.735 59.303 41.643 59.999 41.643 C 65.221 41.643 69.651 44.985 71.3 49.643 L 66.919 49.643 C 65.535 47.253 62.958 45.643 59.999 45.643 Z M 30.003 69.639 L 69.998 69.639 C 71.102 69.639 71.998 70.535 71.998 71.639 C 71.998 72.744 71.102 73.639 69.998 73.639 L 30.003 73.639 C 28.899 73.639 28.003 72.744 28.003 71.639 C 28.003 70.535 28.898 69.639 30.003 69.639 Z"
        fill="#000000"
        fill-rule="evenodd"/>
</svg>
